; generated by Slic3r 1.3.0 on 2023-11-30 at 13:35:05

; external perimeters extrusion width = 0.55mm (4.37mm^3/s)
; perimeters extrusion width = 0.70mm (11.44mm^3/s)
; infill extrusion width = 0.63mm (13.45mm^3/s)
; solid infill extrusion width = 0.70mm (3.81mm^3/s)
; top infill extrusion width = 0.70mm (2.86mm^3/s)

M107
M104 S200 ; set temperature
G28 ; home all axes
G1 Z5 F5000 ; lift nozzle

; Filament gcode

M109 S200 ; set temperature and wait for it to be reached
G21 ; set units to millimeters
G90 ; use absolute coordinates
M82 ; use absolute distances for extrusion
G92 E0
G1 Z0.350 F7800.000
G1 E-2.00000 F2400.00000
G92 E0
G1 X84.915 Y59.122 F7800.000
G1 E2.00000 F2400.00000
G1 F1800
G1 X86.668 Y57.643 E2.07096
G1 X88.820 Y56.850 E2.14192
G1 X90.000 Y56.745 E2.17858
G1 X110.000 Y56.745 E2.79740
G1 X112.259 Y57.141 E2.86836
G1 X114.247 Y58.285 E2.93933
G1 X115.726 Y60.038 E3.01029
G1 X116.519 Y62.190 E3.08125
G1 X116.625 Y63.369 E3.11790
G1 X116.625 Y136.631 E5.38470
G1 X116.228 Y138.889 E5.45566
G1 X115.085 Y140.878 E5.52662
G1 X113.332 Y142.357 E5.59759
G1 X111.180 Y143.150 E5.66855
G1 X110.000 Y143.255 E5.70520
G1 X90.000 Y143.255 E6.32403
G1 X87.741 Y142.859 E6.39499
G1 X85.753 Y141.715 E6.46595
G1 X84.274 Y139.962 E6.53691
G1 X83.481 Y137.810 E6.60788
G1 X83.375 Y136.631 E6.64453
G1 X83.375 Y63.369 E8.91132
G1 X83.772 Y61.111 E8.98229
G1 X84.878 Y59.187 E9.05093
G1 E7.05093 F2400.00000
G92 E0
G1 X108.400 Y126.230 F7800.000
G1 E2.00000 F2400.00000
G1 F1800
G1 X108.400 Y135.031 E2.27230
G1 X91.600 Y135.031 E2.79213
G1 X91.600 Y126.230 E3.06442
G1 X108.325 Y126.230 E3.58193
G1 X109.025 Y125.605 F7800.000
G1 F1800
G1 X109.025 Y135.656 E3.89290
G1 X90.975 Y135.656 E4.45139
G1 X90.975 Y125.605 E4.76236
G1 X108.950 Y125.605 E5.31854
G1 X109.650 Y124.981 F7800.000
G1 F1800
G1 X109.650 Y136.281 E5.66818
G1 X90.350 Y136.281 E6.26534
G1 X90.350 Y124.981 E6.61498
G1 X109.575 Y124.981 E7.20983
G1 X109.480 Y125.451 F7800.000
G1 E5.20983 F2400.00000
G92 E0
G1 X107.532 Y134.649 F7800.000
G1 E2.00000 F2400.00000
G1 F1800
G1 X108.018 Y134.163 E2.02139
G1 X108.018 Y133.274 E2.04903
G1 X106.644 Y134.649 E2.10951
G1 X105.755 Y134.649 E2.13715
G1 X108.018 Y132.386 E2.23672
G1 X108.018 Y131.497 E2.26436
G1 X104.867 Y134.649 E2.40301
G1 X103.978 Y134.649 E2.43065
G1 X108.018 Y130.609 E2.60840
G1 X108.018 Y129.720 E2.63604
G1 X103.090 Y134.649 E2.85287
G1 X102.201 Y134.649 E2.88051
G1 X108.018 Y128.832 E3.13644
G1 X108.018 Y127.943 E3.16408
G1 X101.313 Y134.649 E3.45909
G1 X100.424 Y134.649 E3.48673
G1 X108.018 Y127.055 E3.82083
G1 X108.018 Y126.612 E3.83460
G1 X107.572 Y126.612 E3.84847
G1 X99.536 Y134.649 E4.20205
G1 X98.647 Y134.649 E4.22969
G1 X106.684 Y126.612 E4.58326
G1 X105.795 Y126.612 E4.61090
G1 X97.759 Y134.649 E4.96447
G1 X96.870 Y134.649 E4.99211
G1 X104.907 Y126.612 E5.34568
G1 X104.018 Y126.612 E5.37332
G1 X95.982 Y134.649 E5.72689
G1 X95.093 Y134.649 E5.75453
G1 X103.130 Y126.612 E6.10810
G1 X102.241 Y126.612 E6.13574
G1 X94.205 Y134.649 E6.48931
G1 X93.316 Y134.649 E6.51695
G1 X101.353 Y126.612 E6.87052
G1 X100.464 Y126.612 E6.89816
G1 X92.428 Y134.649 E7.25173
G1 X91.982 Y134.649 E7.26561
G1 X91.982 Y134.206 E7.27937
G1 X99.576 Y126.612 E7.61348
G1 X98.687 Y126.612 E7.64112
G1 X91.982 Y133.318 E7.93613
G1 X91.982 Y132.429 E7.96377
G1 X97.799 Y126.612 E8.21969
G1 X96.910 Y126.612 E8.24734
G1 X91.982 Y131.541 E8.46417
G1 X91.982 Y130.652 E8.49181
G1 X96.022 Y126.612 E8.66956
G1 X95.133 Y126.612 E8.69720
G1 X91.982 Y129.764 E8.83585
G1 X91.982 Y128.875 E8.86349
G1 X94.245 Y126.612 E8.96306
G1 X93.356 Y126.612 E8.99070
G1 X91.982 Y127.987 E9.05118
G1 X91.982 Y127.098 E9.07882
G1 X92.468 Y126.612 E9.10021
G1 E7.10021 F2400.00000
G92 E0
G1 X108.400 Y117.462 F7800.000
G1 E2.00000 F2400.00000
G1 F1800
G1 X91.600 Y117.462 E2.51983
G1 X91.600 Y108.661 E2.79213
G1 X108.400 Y108.661 E3.31195
G1 X108.400 Y117.387 E3.58193
G1 X109.025 Y118.087 F7800.000
G1 F1800
G1 X90.975 Y118.087 E4.14043
G1 X90.975 Y108.036 E4.45139
G1 X109.025 Y108.036 E5.00989
G1 X109.025 Y118.012 E5.31854
G1 X109.650 Y118.711 F7800.000
G1 F1800
G1 X90.350 Y118.711 E5.91571
G1 X90.350 Y107.411 E6.26534
G1 X109.650 Y107.411 E6.86251
G1 X109.650 Y118.636 E7.20983
G1 X109.158 Y118.624 F7800.000
G1 E5.20983 F2400.00000
G92 E0
G1 X107.532 Y117.080 F7800.000
G1 E2.00000 F2400.00000
G1 F1800
G1 X108.018 Y116.594 E2.02139
G1 X108.018 Y115.705 E2.04903
G1 X106.644 Y117.080 E2.10951
G1 X105.755 Y117.080 E2.13715
G1 X108.018 Y114.817 E2.23672
G1 X108.018 Y113.928 E2.26436
G1 X104.867 Y117.080 E2.40301
G1 X103.978 Y117.080 E2.43065
G1 X108.018 Y113.040 E2.60840
G1 X108.018 Y112.151 E2.63604
G1 X103.090 Y117.080 E2.85287
G1 X102.201 Y117.080 E2.88051
G1 X108.018 Y111.263 E3.13644
G1 X108.018 Y110.374 E3.16408
G1 X101.313 Y117.080 E3.45909
G1 X100.424 Y117.080 E3.48673
G1 X108.018 Y109.486 E3.82083
G1 X108.018 Y109.043 E3.83460
G1 X107.572 Y109.043 E3.84847
G1 X99.536 Y117.080 E4.20205
G1 X98.647 Y117.080 E4.22969
G1 X106.684 Y109.043 E4.58326
G1 X105.795 Y109.043 E4.61090
G1 X97.759 Y117.080 E4.96447
G1 X96.870 Y117.080 E4.99211
G1 X104.907 Y109.043 E5.34568
G1 X104.018 Y109.043 E5.37332
G1 X95.982 Y117.080 E5.72689
G1 X95.093 Y117.080 E5.75453
G1 X103.130 Y109.043 E6.10810
G1 X102.241 Y109.043 E6.13574
G1 X94.205 Y117.080 E6.48931
G1 X93.316 Y117.080 E6.51695
G1 X101.353 Y109.043 E6.87052
G1 X100.464 Y109.043 E6.89816
G1 X92.428 Y117.080 E7.25173
G1 X91.982 Y117.080 E7.26561
G1 X91.982 Y116.637 E7.27937
G1 X99.576 Y109.043 E7.61348
G1 X98.687 Y109.043 E7.64112
G1 X91.982 Y115.749 E7.93613
G1 X91.982 Y114.860 E7.96377
G1 X97.799 Y109.043 E8.21969
G1 X96.910 Y109.043 E8.24733
G1 X91.982 Y113.972 E8.46417
G1 X91.982 Y113.083 E8.49181
G1 X96.022 Y109.043 E8.66956
G1 X95.133 Y109.043 E8.69720
G1 X91.982 Y112.195 E8.83585
G1 X91.982 Y111.306 E8.86349
G1 X94.245 Y109.043 E8.96306
G1 X93.356 Y109.043 E8.99070
G1 X91.982 Y110.418 E9.05118
G1 X91.982 Y109.529 E9.07882
G1 X92.468 Y109.043 E9.10021
G1 E7.10021 F2400.00000
G92 E0
G1 X108.400 Y101.490 F7800.000
G1 E2.00000 F2400.00000
G1 F1800
G1 X91.600 Y101.490 E2.51983
G1 X91.600 Y92.689 E2.79213
G1 X108.400 Y92.689 E3.31195
G1 X108.400 Y101.415 E3.58193
G1 X109.025 Y102.115 F7800.000
G1 F1800
G1 X90.975 Y102.115 E4.14043
G1 X90.975 Y92.064 E4.45139
G1 X109.025 Y92.064 E5.00989
G1 X109.025 Y102.040 E5.31854
G1 X109.650 Y102.739 F7800.000
G1 F1800
G1 X90.350 Y102.739 E5.91571
G1 X90.350 Y91.439 E6.26534
G1 X109.650 Y91.439 E6.86251
G1 X109.650 Y102.664 E7.20983
G1 X109.158 Y102.652 F7800.000
G1 E5.20983 F2400.00000
G92 E0
G1 X107.532 Y101.108 F7800.000
G1 E2.00000 F2400.00000
G1 F1800
G1 X108.018 Y100.622 E2.02139
G1 X108.018 Y99.733 E2.04903
G1 X106.644 Y101.108 E2.10951
G1 X105.755 Y101.108 E2.13715
G1 X108.018 Y98.845 E2.23672
G1 X108.018 Y97.956 E2.26436
G1 X104.867 Y101.108 E2.40301
G1 X103.978 Y101.108 E2.43065
G1 X108.018 Y97.068 E2.60840
G1 X108.018 Y96.179 E2.63604
G1 X103.090 Y101.108 E2.85287
G1 X102.201 Y101.108 E2.88051
G1 X108.018 Y95.291 E3.13644
G1 X108.018 Y94.402 E3.16408
G1 X101.313 Y101.108 E3.45909
G1 X100.424 Y101.108 E3.48673
G1 X108.018 Y93.514 E3.82083
G1 X108.018 Y93.071 E3.83460
G1 X107.572 Y93.071 E3.84847
G1 X99.536 Y101.108 E4.20205
G1 X98.647 Y101.108 E4.22969
G1 X106.684 Y93.071 E4.58326
G1 X105.795 Y93.071 E4.61090
G1 X97.759 Y101.108 E4.96447
G1 X96.870 Y101.108 E4.99211
G1 X104.907 Y93.071 E5.34568
G1 X104.018 Y93.071 E5.37332
G1 X95.982 Y101.108 E5.72689
G1 X95.093 Y101.108 E5.75453
G1 X103.130 Y93.071 E6.10810
G1 X102.241 Y93.071 E6.13574
G1 X94.205 Y101.108 E6.48931
G1 X93.316 Y101.108 E6.51695
G1 X101.353 Y93.071 E6.87052
G1 X100.464 Y93.071 E6.89816
G1 X92.428 Y101.108 E7.25173
G1 X91.982 Y101.108 E7.26561
G1 X91.982 Y100.665 E7.27937
G1 X99.576 Y93.071 E7.61348
G1 X98.687 Y93.071 E7.64112
G1 X91.982 Y99.777 E7.93613
G1 X91.982 Y98.888 E7.96377
G1 X97.799 Y93.071 E8.21969
G1 X96.910 Y93.071 E8.24733
G1 X91.982 Y98.000 E8.46417
G1 X91.982 Y97.111 E8.49181
G1 X96.022 Y93.071 E8.66955
G1 X95.133 Y93.071 E8.69720
G1 X91.982 Y96.223 E8.83585
G1 X91.982 Y95.334 E8.86349
G1 X94.245 Y93.071 E8.96306
G1 X93.356 Y93.071 E8.99070
G1 X91.982 Y94.446 E9.05118
G1 X91.982 Y93.557 E9.07882
G1 X92.468 Y93.071 E9.10021
G1 E7.10021 F2400.00000
G92 E0
G1 X108.400 Y86.970 F7800.000
G1 E2.00000 F2400.00000
G1 F1800
G1 X91.600 Y86.970 E2.51983
G1 X91.600 Y78.169 E2.79213
G1 X108.400 Y78.169 E3.31195
G1 X108.400 Y86.895 E3.58193
G1 X109.025 Y87.595 F7800.000
G1 F1800
G1 X90.975 Y87.595 E4.14043
G1 X90.975 Y77.544 E4.45139
G1 X109.025 Y77.544 E5.00989
G1 X109.025 Y87.520 E5.31854
G1 X109.650 Y88.219 F7800.000
G1 F1800
G1 X90.350 Y88.219 E5.91571
G1 X90.350 Y76.919 E6.26534
G1 X109.650 Y76.919 E6.86251
G1 X109.650 Y88.144 E7.20983
G1 X109.158 Y88.132 F7800.000
G1 E5.20983 F2400.00000
G92 E0
G1 X107.532 Y86.588 F7800.000
G1 E2.00000 F2400.00000
G1 F1800
G1 X108.018 Y86.102 E2.02139
G1 X108.018 Y85.213 E2.04903
G1 X106.644 Y86.588 E2.10951
G1 X105.755 Y86.588 E2.13715
G1 X108.018 Y84.325 E2.23672
G1 X108.018 Y83.436 E2.26436
G1 X104.867 Y86.588 E2.40301
G1 X103.978 Y86.588 E2.43065
G1 X108.018 Y82.548 E2.60840
G1 X108.018 Y81.659 E2.63604
G1 X103.090 Y86.588 E2.85287
G1 X102.201 Y86.588 E2.88051
G1 X108.018 Y80.771 E3.13644
G1 X108.018 Y79.882 E3.16408
G1 X101.313 Y86.588 E3.45909
G1 X100.424 Y86.588 E3.48673
G1 X108.018 Y78.994 E3.82083
G1 X108.018 Y78.551 E3.83460
G1 X107.572 Y78.551 E3.84847
G1 X99.536 Y86.588 E4.20205
G1 X98.647 Y86.588 E4.22969
G1 X106.684 Y78.551 E4.58326
G1 X105.795 Y78.551 E4.61090
G1 X97.759 Y86.588 E4.96447
G1 X96.870 Y86.588 E4.99211
G1 X104.907 Y78.551 E5.34568
G1 X104.018 Y78.551 E5.37332
G1 X95.982 Y86.588 E5.72689
G1 X95.093 Y86.588 E5.75453
G1 X103.130 Y78.551 E6.10810
G1 X102.241 Y78.551 E6.13574
G1 X94.205 Y86.588 E6.48931
G1 X93.316 Y86.588 E6.51695
G1 X101.353 Y78.551 E6.87052
G1 X100.464 Y78.551 E6.89816
G1 X92.428 Y86.588 E7.25173
G1 X91.982 Y86.588 E7.26561
G1 X91.982 Y86.145 E7.27938
G1 X99.576 Y78.551 E7.61348
G1 X98.687 Y78.551 E7.64112
G1 X91.982 Y85.257 E7.93613
G1 X91.982 Y84.368 E7.96377
G1 X97.799 Y78.551 E8.21970
G1 X96.910 Y78.551 E8.24734
G1 X91.982 Y83.480 E8.46417
G1 X91.982 Y82.591 E8.49181
G1 X96.022 Y78.551 E8.66956
G1 X95.133 Y78.551 E8.69720
G1 X91.982 Y81.703 E8.83585
G1 X91.982 Y80.814 E8.86349
G1 X94.245 Y78.551 E8.96306
G1 X93.356 Y78.551 E8.99070
G1 X91.982 Y79.926 E9.05118
G1 X91.982 Y79.037 E9.07882
G1 X92.468 Y78.551 E9.10021
G1 E7.10021 F2400.00000
G92 E0
G1 X108.400 Y73.770 F7800.000
G1 E2.00000 F2400.00000
G1 F1800
G1 X91.600 Y73.770 E2.51983
G1 X91.600 Y64.969 E2.79213
G1 X108.400 Y64.969 E3.31195
G1 X108.400 Y73.695 E3.58193
G1 X109.025 Y74.395 F7800.000
G1 F1800
G1 X90.975 Y74.395 E4.14043
G1 X90.975 Y64.344 E4.45139
G1 X109.025 Y64.344 E5.00989
G1 X109.025 Y74.320 E5.31854
G1 X109.650 Y75.019 F7800.000
G1 F1800
G1 X90.350 Y75.019 E5.91571
G1 X90.350 Y63.719 E6.26534
G1 X109.650 Y63.719 E6.86251
G1 X109.650 Y74.944 E7.20983
G1 X109.158 Y74.932 F7800.000
G1 E5.20983 F2400.00000
G92 E0
G1 X107.532 Y73.388 F7800.000
G1 E2.00000 F2400.00000
G1 F1800
G1 X108.018 Y72.902 E2.02139
G1 X108.018 Y72.013 E2.04903
G1 X106.644 Y73.388 E2.10951
G1 X105.755 Y73.388 E2.13715
G1 X108.018 Y71.125 E2.23672
G1 X108.018 Y70.236 E2.26436
G1 X104.867 Y73.388 E2.40301
G1 X103.978 Y73.388 E2.43065
G1 X108.018 Y69.348 E2.60840
G1 X108.018 Y68.459 E2.63604
G1 X103.090 Y73.388 E2.85287
G1 X102.201 Y73.388 E2.88051
G1 X108.018 Y67.571 E3.13644
G1 X108.018 Y66.682 E3.16408
G1 X101.313 Y73.388 E3.45909
G1 X100.424 Y73.388 E3.48673
G1 X108.018 Y65.794 E3.82083
G1 X108.018 Y65.351 E3.83460
G1 X107.572 Y65.351 E3.84847
G1 X99.536 Y73.388 E4.20205
G1 X98.647 Y73.388 E4.22969
G1 X106.684 Y65.351 E4.58326
G1 X105.795 Y65.351 E4.61090
G1 X97.759 Y73.388 E4.96447
G1 X96.870 Y73.388 E4.99211
G1 X104.907 Y65.351 E5.34568
G1 X104.018 Y65.351 E5.37332
G1 X95.982 Y73.388 E5.72689
G1 X95.093 Y73.388 E5.75453
G1 X103.130 Y65.351 E6.10810
G1 X102.241 Y65.351 E6.13574
G1 X94.205 Y73.388 E6.48931
G1 X93.316 Y73.388 E6.51695
G1 X101.353 Y65.351 E6.87052
G1 X100.464 Y65.351 E6.89816
G1 X92.428 Y73.388 E7.25173
G1 X91.982 Y73.388 E7.26561
G1 X91.982 Y72.945 E7.27937
G1 X99.576 Y65.351 E7.61348
G1 X98.687 Y65.351 E7.64112
G1 X91.982 Y72.057 E7.93613
G1 X91.982 Y71.168 E7.96377
G1 X97.799 Y65.351 E8.21970
G1 X96.910 Y65.351 E8.24734
G1 X91.982 Y70.280 E8.46417
G1 X91.982 Y69.391 E8.49181
G1 X96.022 Y65.351 E8.66956
G1 X95.133 Y65.351 E8.69720
G1 X91.982 Y68.503 E8.83585
G1 X91.982 Y67.614 E8.86349
G1 X94.245 Y65.351 E8.96306
G1 X93.356 Y65.351 E8.99070
G1 X91.982 Y66.726 E9.05118
G1 X91.982 Y65.837 E9.07882
G1 X92.468 Y65.351 E9.10021
G1 Z0.650 F7800.000
G1 E7.10021 F2400.00000
G92 E0
G1 X100.123 Y132.601 F7800.000
G1 E2.00000 F2400.00000
G1 F900
G1 X100.295 Y132.669 E2.00500
G1 X100.424 Y132.789 E2.00975
G1 X100.533 Y132.989 E2.01589
G1 X100.546 Y133.199 E2.02156
G1 X100.492 Y133.366 E2.02629
G1 X100.356 Y133.549 E2.03244
G1 X100.201 Y133.634 E2.03721
G1 X100.068 Y133.668 E2.04091
G1 X99.897 Y133.668 E2.04554
G1 X99.732 Y133.603 E2.05031
G1 X99.587 Y133.487 E2.05533
G1 X99.477 Y133.299 E2.06120
G1 X99.454 Y133.062 E2.06763
G1 X99.518 Y132.867 E2.07315
G1 X99.626 Y132.736 E2.07776
G1 X99.765 Y132.635 E2.08238
G1 X99.936 Y132.592 E2.08715
G1 X100.049 Y132.590 E2.09018
G1 X100.329 Y132.079 F7800.000
G1 F900
G1 X100.543 Y132.164 E2.09492
G1 X100.646 Y132.229 E2.09744
G1 X100.857 Y132.426 E2.10338
G1 X100.985 Y132.623 E2.10822
G1 X101.090 Y132.915 E2.11461
G1 X101.108 Y133.209 E2.12068
G1 X101.093 Y133.330 E2.12319
G1 X101.004 Y133.603 E2.12913
G1 X100.880 Y133.803 E2.13396
G1 X100.660 Y134.022 E2.14036
G1 X100.409 Y134.160 E2.14627
G1 X100.139 Y134.229 E2.15201
G1 X99.852 Y134.229 E2.15793
G1 X99.732 Y134.206 E2.16045
G1 X99.464 Y134.100 E2.16640
G1 X99.272 Y133.964 E2.17124
G1 X99.147 Y133.840 E2.17487
G1 X98.991 Y133.594 E2.18086
G1 X98.943 Y133.473 E2.18355
G1 X98.910 Y133.347 E2.18624
G1 X98.892 Y133.052 E2.19232
G1 X98.907 Y132.932 E2.19483
G1 X98.998 Y132.651 E2.20091
G1 X99.057 Y132.544 E2.20342
G1 X99.240 Y132.324 E2.20933
G1 X99.472 Y132.155 E2.21524
G1 X99.583 Y132.103 E2.21776
G1 X99.862 Y132.032 E2.22371
G1 X100.098 Y132.029 E2.22855
G1 X100.259 Y132.055 E2.23192
G1 X100.384 Y132.303 F7800.000
G1 X100.004 Y133.131 F7800.000
G1 F1200
G1 X99.997 Y133.131 E2.23203
G1 E0.23203 F2400.00000
G92 E0
G1 X99.926 Y128.668 F7800.000
G1 E2.00000 F2400.00000
G1 F900
G1 X99.709 Y128.596 E2.00619
G1 X99.576 Y128.472 E2.01109
G1 X99.467 Y128.272 E2.01723
G1 X99.456 Y128.092 E2.02211
G1 X99.514 Y127.872 E2.02824
G1 X99.630 Y127.732 E2.03313
G1 X99.786 Y127.630 E2.03816
G1 X99.936 Y127.592 E2.04236
G1 X100.057 Y127.590 E2.04560
G1 X100.268 Y127.658 E2.05158
G1 X100.443 Y127.804 E2.05775
G1 X100.533 Y127.995 E2.06343
G1 X100.544 Y128.165 E2.06801
G1 X100.517 Y128.303 E2.07181
G1 X100.468 Y128.411 E2.07502
G1 X100.295 Y128.592 E2.08177
G1 X100.103 Y128.668 E2.08734
G1 X100.001 Y128.668 E2.09009
G1 X99.926 Y129.229 F7800.000
G1 F900
G1 X99.631 Y129.173 E2.09630
G1 X99.461 Y129.100 E2.10011
G1 X99.354 Y129.032 E2.10272
G1 X99.143 Y128.835 E2.10866
G1 X99.015 Y128.638 E2.11350
G1 X98.942 Y128.469 E2.11731
G1 X98.910 Y128.347 E2.11991
G1 X98.892 Y128.059 E2.12584
G1 X98.933 Y127.829 E2.13067
G1 X98.996 Y127.655 E2.13448
G1 X99.057 Y127.544 E2.13708
G1 X99.241 Y127.322 E2.14302
G1 X99.430 Y127.182 E2.14786
G1 X99.587 Y127.102 E2.15150
G1 X99.862 Y127.032 E2.15736
G1 X100.098 Y127.029 E2.16221
G1 X100.272 Y127.057 E2.16585
G1 X100.536 Y127.161 E2.17171
G1 X100.728 Y127.297 E2.17655
G1 X100.859 Y127.427 E2.18036
G1 X100.933 Y127.530 E2.18296
G1 X101.059 Y127.797 E2.18905
G1 X101.090 Y127.915 E2.19156
G1 X101.108 Y128.200 E2.19745
G1 X101.055 Y128.474 E2.20321
G1 X100.958 Y128.688 E2.20804
G1 X100.859 Y128.833 E2.21167
G1 X100.646 Y129.032 E2.21767
G1 X100.543 Y129.097 E2.22019
G1 X100.268 Y129.206 E2.22628
G1 X100.148 Y129.229 E2.22880
G1 X100.001 Y129.229 E2.23182
G1 X99.891 Y129.171 F7800.000
G1 X100.005 Y128.131 F7800.000
G1 F1200
G1 X99.995 Y128.131 E2.23197
G1 E0.23197 F2400.00000
